X:228
T: Buchsbaum und Felbinger
N: A0273B
O: Europa, Mitteleuropa, Deutschland
N: Schmeltzel Quodl.XI 1544
R: Romanze, Ballade, Lied
M: 6/2
L: 1/4
K: G
G2G2G2 | A4B4 | c4c2c4
c2 | c4c4 | B3AB2A4G2 | A8 | z2
A2=F2F2 | E4E2D2 | DCDE=F2F2 | G8 | z4
B4 | c3BA2G2 | A4G4 | z2

